static/img/brands/camden-gear.svg

<svg xmlns="http://www.w3.org/2000/svg" style="isolation:isolate" width="400" height="100"><path d="M259.9 77.84q-7.2 0-10.26-4.38-3.06-4.38-3.06-12.42V44.72q0-8.22 3.33-12.54 3.33-4.32 11.25-4.32 7.62 0 10.92 3.72t3.3 10.5v3.12h-10.5v-3.96q0-2.88-.66-4.35-.66-1.47-2.94-1.47-2.34 0-3.03 1.62t-.69 4.5v22.5q0 2.88.87 4.53.87 1.65 3.15 1.65 4.2 0 4.2-6.3v-5.7h-4.38v-6.3h14.04v25.2h-7.08l-.6-4.02q-2.28 4.74-7.86 4.74zm22.26-.72v-48.6H304v7.32h-11.1V47.9h8.46v7.44h-8.46v14.52h11.22v7.26h-21.96zm24.48 0l9.18-48.6h12.24l9.06 48.6h-9.9l-1.62-10.26h-7.14l-1.68 10.26h-10.14zm12.78-16.68h5.16L322 41.48l-2.58 18.96zm22.62 16.68v-48.6h13.38q7.98 0 12.06 2.82t4.08 10.02q0 4.86-1.26 7.74t-4.68 4.5l6.66 23.52h-11.1l-5.34-21.78h-3.06v21.78h-10.74zm10.74-27.96h3q3.24 0 4.53-1.71t1.29-5.13q0-3.3-1.2-4.95-1.2-1.65-4.14-1.65h-3.48v13.44zM41.08 77.84q-7.92 0-11.25-4.17T26.5 61.64V44.12q0-8.04 3.3-12.15 3.3-4.11 11.28-4.11 7.62 0 10.8 3.66 3.18 3.66 3.18 10.38v4.2h-10.5v-4.86q0-2.82-.6-4.32-.6-1.5-2.88-1.5t-3 1.59q-.72 1.59-.72 4.41v22.86q0 2.88.75 4.41.75 1.53 2.97 1.53t2.85-1.53q.63-1.53.63-4.41v-5.1h10.5v4.2q0 6.84-3.18 10.65-3.18 3.81-10.8 3.81zm17.52-.72l9.18-48.6h12.24l9.06 48.6h-9.9l-1.62-10.26h-7.14l-1.68 10.26H58.6zm12.78-16.68h5.16l-2.58-18.96-2.58 18.96zm22.44 16.68l.84-48.6h11.52l5.34 28.26 5.76-28.26h11.1l.84 48.6h-7.62l-.9-32.34-5.64 32.34h-6.78l-6-32.58-.72 32.58h-7.74zm42.42 0v-48.6h12.3q6.3 0 9.84 1.56t5.01 4.89q1.47 3.33 1.47 8.91v17.64q0 5.64-1.47 9-1.47 3.36-4.98 4.98-3.51 1.62-9.75 1.62h-12.42zm10.74-7.44h1.68q2.34 0 3.45-.69 1.11-.69 1.41-1.98.3-1.29.3-3.81V42.02q0-2.34-.33-3.57t-1.44-1.83q-1.11-.6-3.45-.6h-1.62v33.66zm24.42 7.44v-48.6h21.84v7.32h-11.1V47.9h8.46v7.44h-8.46v14.52h11.22v7.26H171.4zm26.82 0v-48.6h7.56l9.96 23.4v-23.4h8.88v48.6h-7.26l-9.96-25.2v25.2h-9.18z" fill-rule="evenodd"/></svg>

<?xml version="1.0" standalone="no"?><!-- Generator: Gravit.io --><svg xmlns="http://www.w3.org/2000/svg" xmlns:xlink="http://www.w3.org/1999/xlink" style="isolation:isolate" viewBox="0 0 400 100" width="400" height="100"><path d=" M 259.9 77.84 L 259.9 77.84 Q 252.7 77.84 249.64 73.46 L 249.64 73.46 L 249.64 73.46 Q 246.58 69.08 246.58 61.04 L 246.58 61.04 L 246.58 44.72 L 246.58 44.72 Q 246.58 36.5 249.91 32.18 L 249.91 32.18 L 249.91 32.18 Q 253.24 27.86 261.16 27.86 L 261.16 27.86 L 261.16 27.86 Q 268.78 27.86 272.08 31.58 L 272.08 31.58 L 272.08 31.58 Q 275.38 35.3 275.38 42.08 L 275.38 42.08 L 275.38 45.2 L 264.88 45.2 L 264.88 41.24 L 264.88 41.24 Q 264.88 38.36 264.22 36.89 L 264.22 36.89 L 264.22 36.89 Q 263.56 35.42 261.28 35.42 L 261.28 35.42 L 261.28 35.42 Q 258.94 35.42 258.25 37.04 L 258.25 37.04 L 258.25 37.04 Q 257.56 38.66 257.56 41.54 L 257.56 41.54 L 257.56 64.04 L 257.56 64.04 Q 257.56 66.92 258.43 68.57 L 258.43 68.57 L 258.43 68.57 Q 259.3 70.22 261.58 70.22 L 261.58 70.22 L 261.58 70.22 Q 265.78 70.22 265.78 63.92 L 265.78 63.92 L 265.78 58.22 L 261.4 58.22 L 261.4 51.92 L 275.44 51.92 L 275.44 77.12 L 268.36 77.12 L 267.76 73.1 L 267.76 73.1 Q 265.48 77.84 259.9 77.84 L 259.9 77.84 L 259.9 77.84 Z  M 282.16 77.12 L 282.16 28.52 L 304 28.52 L 304 35.84 L 292.9 35.84 L 292.9 47.9 L 301.36 47.9 L 301.36 55.34 L 292.9 55.34 L 292.9 69.86 L 304.12 69.86 L 304.12 77.12 L 282.16 77.12 L 282.16 77.12 Z  M 306.64 77.12 L 315.82 28.52 L 328.06 28.52 L 337.12 77.12 L 327.22 77.12 L 325.6 66.86 L 318.46 66.86 L 316.78 77.12 L 306.64 77.12 L 306.64 77.12 Z  M 319.42 60.44 L 324.58 60.44 L 322 41.48 L 319.42 60.44 L 319.42 60.44 Z  M 342.04 77.12 L 342.04 28.52 L 355.42 28.52 L 355.42 28.52 Q 363.4 28.52 367.48 31.34 L 367.48 31.34 L 367.48 31.34 Q 371.56 34.16 371.56 41.36 L 371.56 41.36 L 371.56 41.36 Q 371.56 46.22 370.3 49.1 L 370.3 49.1 L 370.3 49.1 Q 369.04 51.98 365.62 53.6 L 365.62 53.6 L 372.28 77.12 L 361.18 77.12 L 355.84 55.34 L 352.78 55.34 L 352.78 77.12 L 342.04 77.12 L 342.04 77.12 Z  M 352.78 49.16 L 355.78 49.16 L 355.78 49.16 Q 359.02 49.16 360.31 47.45 L 360.31 47.45 L 360.31 47.45 Q 361.6 45.74 361.6 42.32 L 361.6 42.32 L 361.6 42.32 Q 361.6 39.02 360.4 37.37 L 360.4 37.37 L 360.4 37.37 Q 359.2 35.72 356.26 35.72 L 356.26 35.72 L 352.78 35.72 L 352.78 49.16 L 352.78 49.16 Z  M 41.08 77.84 L 41.08 77.84 Q 33.16 77.84 29.83 73.67 L 29.83 73.67 L 29.83 73.67 Q 26.5 69.5 26.5 61.64 L 26.5 61.64 L 26.5 44.12 L 26.5 44.12 Q 26.5 36.08 29.8 31.97 L 29.8 31.97 L 29.8 31.97 Q 33.1 27.86 41.08 27.86 L 41.08 27.86 L 41.08 27.86 Q 48.7 27.86 51.88 31.52 L 51.88 31.52 L 51.88 31.52 Q 55.06 35.18 55.06 41.9 L 55.06 41.9 L 55.06 46.1 L 44.56 46.1 L 44.56 41.24 L 44.56 41.24 Q 44.56 38.42 43.96 36.92 L 43.96 36.92 L 43.96 36.92 Q 43.36 35.42 41.08 35.42 L 41.08 35.42 L 41.08 35.42 Q 38.8 35.42 38.08 37.01 L 38.08 37.01 L 38.08 37.01 Q 37.36 38.6 37.36 41.42 L 37.36 41.42 L 37.36 64.28 L 37.36 64.28 Q 37.36 67.16 38.11 68.69 L 38.11 68.69 L 38.11 68.69 Q 38.86 70.22 41.08 70.22 L 41.08 70.22 L 41.08 70.22 Q 43.3 70.22 43.93 68.69 L 43.93 68.69 L 43.93 68.69 Q 44.56 67.16 44.56 64.28 L 44.56 64.28 L 44.56 59.18 L 55.06 59.18 L 55.06 63.38 L 55.06 63.38 Q 55.06 70.22 51.88 74.03 L 51.88 74.03 L 51.88 74.03 Q 48.7 77.84 41.08 77.84 L 41.08 77.84 L 41.08 77.84 Z  M 58.6 77.12 L 67.78 28.52 L 80.02 28.52 L 89.08 77.12 L 79.18 77.12 L 77.56 66.86 L 70.42 66.86 L 68.74 77.12 L 58.6 77.12 L 58.6 77.12 Z  M 71.38 60.44 L 76.54 60.44 L 73.96 41.48 L 71.38 60.44 L 71.38 60.44 Z  M 93.82 77.12 L 94.66 28.52 L 106.18 28.52 L 111.52 56.78 L 117.28 28.52 L 128.38 28.52 L 129.22 77.12 L 121.6 77.12 L 120.7 44.78 L 115.06 77.12 L 108.28 77.12 L 102.28 44.54 L 101.56 77.12 L 93.82 77.12 L 93.82 77.12 Z  M 136.24 77.12 L 136.24 28.52 L 148.54 28.52 L 148.54 28.52 Q 154.84 28.52 158.38 30.08 L 158.38 30.08 L 158.38 30.08 Q 161.92 31.64 163.39 34.97 L 163.39 34.97 L 163.39 34.97 Q 164.86 38.3 164.86 43.88 L 164.86 43.88 L 164.86 61.52 L 164.86 61.52 Q 164.86 67.16 163.39 70.52 L 163.39 70.52 L 163.39 70.52 Q 161.92 73.88 158.41 75.5 L 158.41 75.5 L 158.41 75.5 Q 154.9 77.12 148.66 77.12 L 148.66 77.12 L 136.24 77.12 L 136.24 77.12 Z  M 146.98 69.68 L 148.66 69.68 L 148.66 69.68 Q 151 69.68 152.11 68.99 L 152.11 68.99 L 152.11 68.99 Q 153.22 68.3 153.52 67.01 L 153.52 67.01 L 153.52 67.01 Q 153.82 65.72 153.82 63.2 L 153.82 63.2 L 153.82 42.02 L 153.82 42.02 Q 153.82 39.68 153.49 38.45 L 153.49 38.45 L 153.49 38.45 Q 153.16 37.22 152.05 36.62 L 152.05 36.62 L 152.05 36.62 Q 150.94 36.02 148.6 36.02 L 148.6 36.02 L 146.98 36.02 L 146.98 69.68 L 146.98 69.68 Z  M 171.4 77.12 L 171.4 28.52 L 193.24 28.52 L 193.24 35.84 L 182.14 35.84 L 182.14 47.9 L 190.6 47.9 L 190.6 55.34 L 182.14 55.34 L 182.14 69.86 L 193.36 69.86 L 193.36 77.12 L 171.4 77.12 L 171.4 77.12 Z  M 198.22 77.12 L 198.22 28.52 L 205.78 28.52 L 215.74 51.92 L 215.74 28.52 L 224.62 28.52 L 224.62 77.12 L 217.36 77.12 L 207.4 51.92 L 207.4 77.12 L 198.22 77.12 L 198.22 77.12 Z " fill-rule="evenodd" fill="rgb(0,0,0)"/></svg>
